packages/tokens/icons/dollars/size32Px.svg

<svg viewBox="0 0 32 32" fill="none" xmlns="http://www.w3.org/2000/svg" width="1em" height="1em"><path d="M24 11.5V11V11C24 8.23858 21.7614 6 19 6L13 6C10.2386 6 8 8.23858 8 11V11C8 13.7614 10.2386 16 13 16H19C21.7614 16 24 18.2386 24 21V21C24 23.7614 21.7614 26 19 26H13C10.2386 26 8 23.7614 8 21V21L8 20" stroke="currentColor" stroke-linecap="round"/><path d="M16 2V30" stroke="currentColor" stroke-linecap="round"/></svg>

<svg xmlns="http://www.w3.org/2000/svg" fill="none" viewBox="0 0 32 32" width="1em" height="1em"><path stroke="currentColor" stroke-linecap="round" d="M24 11.5V11v0a5 5 0 0 0-5-5h-6a5 5 0 0 0-5 5v0a5 5 0 0 0 5 5h6a5 5 0 0 1 5 5v0a5 5 0 0 1-5 5h-6a5 5 0 0 1-5-5v0-1m8-18v28"/></svg>
